X:764
T:Brendan Tonra's
O:england
M:6/8
L:1/8
R:jig
K:D
~F3 AFE|EDB, A,B,D|~F3 GFG|ABF AFE|
~F3 AFE|EDB, A,B,D|~F3 GFG|1BAF D2E:|2BAF D2g|
:~f2 d dcd|edc Bcd|f2 d dcd|ABF Ade|
~f2 d dcd|edc Bcd|f/2g/2a f gec|1dAF D2 g:|2dAF D2E||


